examples/demo-composable-pfp/assets/accessory/hat.svg

<?xml version="1.0" encoding="UTF-8"?>
<svg width="266px" height="280px" viewBox="0 0 266 280" version="1.1" xmlns="http://www.w3.org/2000/svg" xmlns:xlink="http://www.w3.org/1999/xlink">
    <!-- Generator: Sketch 58 (84663) - https://sketch.com -->
    <title>Top/Accesories/Hat</title>
    <desc>Created with Sketch.</desc>
    <defs>
        <path d="M264,5.68434189e-14 L264,280 L232,280 L232,271 C232,231.633143 200.405988,199.645463 161.190652,199.009646 L160,199 L156,199 L156.001014,180.610469 C173.531251,172.282329 186.048207,155.114429 187.791415,134.867236 C193.471002,134.017289 197.849484,129.186467 197.9962,123.304975 L198,123 L198,110 C198,104.05429 193.675838,99.1185422 188.000809,98.1660527 L188,92 C188,84.0546578 186.345324,76.495786 183.361772,69.6491845 C173.434911,53 89.3126235,53.8033992 80.7098777,69.4854816 C77.6811789,76.3752214 76,83.9912805 76,92 L76,92 L76.0001873,98.1658855 C70.4219896,99.1016387 66.148712,103.885834 66.0037999,109.695025 L66,110 L66,123 C66,129.018777 70.4310943,134.002616 76.2090181,134.867253 C77.9518263,155.114813 90.4692242,172.28298 107.999984,180.610943 L108,199 L104,199 C64.633143,199 32.6454629,230.594012 32.0096459,269.809348 L32,271 L32,280 L0,280 L0,5.68434189e-14 L264,5.68434189e-14 Z" id="path-1"></path>
    </defs>
    <g id="Top/Accesories/Hat" stroke="none" stroke-width="1" fill="none" fill-rule="evenodd">
        <g id="Hat" transform="translate(1.000000, 0.000000)">
            <mask id="mask-2" fill="white">
                <use xlink:href="#path-1"></use>
            </mask>
            <g id="Mask-Hair"></g>
            <path d="M123.182388,2 L141.817612,2 C160.609055,2 176.866947,15.0804442 180.890118,33.4361631 L190,75 L190,75 L75,75 L84.1098821,33.4361631 C88.1330533,15.0804442 104.390945,2 123.182388,2 Z" fill="#1F333C" mask="url(#mask-2)"></path>
            <ellipse id="Hipster" fill="#1F333C" mask="url(#mask-2)" cx="132" cy="87.5" rx="122" ry="57.5"></ellipse>
            <ellipse id="Very" fill="#15232A" mask="url(#mask-2)" cx="132" cy="82" rx="62" ry="25"></ellipse>
        </g>
        <g id="Facial-Hair/-Blank" transform="translate(49.000000, 72.000000)"></g>
        <g id="Top/_Resources/Blank" transform="translate(62.000000, 85.000000)"></g>
    </g>
</svg>

<svg xmlns="http://www.w3.org/2000/svg" xmlns:xlink="http://www.w3.org/1999/xlink" width="266" height="280"><defs><path id="81610913__a" d="M264 0v280h-32v-9c0-39.367-31.594-71.355-70.81-71.99L160 199h-4l.001-18.39c17.53-8.328 30.047-25.496 31.79-45.743 5.68-.85 10.058-5.68 10.205-11.562L198 123v-13c0-5.946-4.324-10.881-10-11.834V92a55.8 55.8 0 0 0-4.638-22.35C173.435 53 89.312 53.802 80.71 69.484A55.8 55.8 0 0 0 76 92v6.166c-5.578.936-9.851 5.72-9.996 11.529L66 110v13c0 6.019 4.431 11.003 10.209 11.867 1.743 20.248 14.26 37.416 31.791 45.744V199h-4c-39.367 0-71.355 31.594-71.99 70.81L32 271v9H0V0z"/></defs><g fill="none" fill-rule="evenodd"><g transform="translate(1)"><mask id="575064d3__b" fill="#fff"><use xlink:href="#81610913__a"/></mask><path fill="#1F333C" d="M123.182 2h18.636c18.791 0 35.049 13.08 39.072 31.436L190 75H75l9.11-41.564C88.133 15.08 104.39 2 123.182 2" mask="url(#575064d3__b)"/><ellipse cx="132" cy="87.5" fill="#1F333C" mask="url(#575064d3__b)" rx="122" ry="57.5"/><ellipse cx="132" cy="82" fill="#15232A" mask="url(#575064d3__b)" rx="62" ry="25"/></g></g></svg>
